src/Assets/icons/linkedln.svg

<svg width="16" height="17" viewBox="0 0 16 17" fill="none" xmlns="http://www.w3.org/2000/svg">
<path d="M14.8156 0.522461H1.18125C0.528125 0.522461 0 1.03809 0 1.67559V15.3662C0 16.0037 0.528125 16.5225 1.18125 16.5225H14.8156C15.4688 16.5225 16 16.0037 16 15.3693V1.67559C16 1.03809 15.4688 0.522461 14.8156 0.522461ZM4.74687 14.1568H2.37188V6.51934H4.74687V14.1568ZM3.55938 5.47871C2.79688 5.47871 2.18125 4.86309 2.18125 4.10371C2.18125 3.34434 2.79688 2.72871 3.55938 2.72871C4.31875 2.72871 4.93437 3.34434 4.93437 4.10371C4.93437 4.85996 4.31875 5.47871 3.55938 5.47871ZM13.6344 14.1568H11.2625V10.4443C11.2625 9.55996 11.2469 8.41934 10.0281 8.41934C8.79375 8.41934 8.60625 9.38496 8.60625 10.3818V14.1568H6.2375V6.51934H8.5125V7.56309H8.54375C8.85938 6.96309 9.63438 6.32871 10.7875 6.32871C13.1906 6.32871 13.6344 7.90996 13.6344 9.96621V14.1568Z" fill="#232536"/>
</svg>

<svg xmlns="http://www.w3.org/2000/svg" width="16" height="17" fill="none" xmlns:v="https://vecta.io/nano"><path d="M14.816.522H1.181C.528.522 0 1.038 0 1.676v13.691a1.17 1.17 0 0 0 1.181 1.156h13.634c.653 0 1.184-.519 1.184-1.153V1.676c0-.637-.531-1.153-1.184-1.153zM4.747 14.157H2.372V6.519h2.375v7.637zM3.559 5.479c-.763 0-1.378-.616-1.378-1.375s.616-1.375 1.378-1.375 1.375.616 1.375 1.375-.616 1.375-1.375 1.375zm10.075 8.678h-2.372v-3.713c0-.884-.016-2.025-1.234-2.025-1.234 0-1.422.966-1.422 1.962v3.775H6.238V6.519h2.275v1.044h.031c.316-.6 1.091-1.234 2.244-1.234 2.403 0 2.847 1.581 2.847 3.638v4.191z" fill="#232536"/></svg>
